src/css/fonts/SVGs/iota_icons/stronghold_icon.svg

<svg width="48" height="48" viewBox="0 0 48 48" fill="none" xmlns="http://www.w3.org/2000/svg">
<path fill-rule="evenodd" clip-rule="evenodd" d="M27.9831 13.5124C28.0161 13.0947 27.7987 12.6956 27.4237 12.4854L25.4317 11.3685C24.5554 10.8772 23.4738 10.8772 22.5974 11.3685L20.7691 12.3936C20.3942 12.6038 20.1768 13.0029 20.2098 13.4206L20.3371 15.0342C20.3689 15.4365 20.1684 15.8228 19.8158 16.0389L18.3775 16.9203C17.8154 17.2648 17.0685 17.0673 16.7663 16.4943L16.5521 16.0884C16.2578 15.5306 15.5393 15.3258 14.9789 15.64L13.4067 16.5215C12.3916 17.0907 11.8466 18.2074 12.0379 19.3264L13.6633 28.8338C13.9264 30.373 14.8587 31.7298 16.2246 32.5614L23.1004 36.748C23.658 37.0875 24.3687 37.0837 24.9224 36.7383L31.6595 32.5362C32.9713 31.718 33.874 30.4116 34.1532 28.9272L35.9543 19.3533C36.1672 18.2216 35.6228 17.0824 34.5932 16.5052L33.1821 15.714C32.6217 15.3998 31.9032 15.6046 31.609 16.1623L31.4338 16.4943C31.1315 17.0673 30.3847 17.2648 29.8226 16.9204L28.3843 16.0389C28.0317 15.8229 27.8312 15.4365 27.863 15.0342L27.9831 13.5124ZM25.2524 25.7103C26.1889 25.2714 26.8345 24.3439 26.8345 23.2706C26.8345 21.7739 25.5788 20.5606 24.03 20.5606C22.4811 20.5606 21.2254 21.7739 21.2254 23.2706C21.2254 24.288 21.8056 25.1744 22.6637 25.6379V28.7601C22.6637 29.4509 23.2432 30.0109 23.9581 30.0109C24.6729 30.0109 25.2524 29.4509 25.2524 28.7601V25.7103Z" fill="black"/>
</svg>

<svg xmlns="http://www.w3.org/2000/svg" viewBox="0 0 48 48">
  <path fill-rule="evenodd" clip-rule="evenodd" d="M27.983 13.512a1.082 1.082 0 0 0-.56-1.027l-1.991-1.117a2.91 2.91 0 0 0-2.835 0l-1.828 1.026c-.375.21-.592.609-.56 1.027l.128 1.613a1.08 1.08 0 0 1-.521 1.005l-1.438.881c-.563.345-1.31.147-1.612-.426l-.214-.406c-.294-.557-1.013-.762-1.573-.448l-1.572.881c-1.015.57-1.56 1.686-1.37 2.805l1.626 9.508c.263 1.539 1.196 2.896 2.562 3.727l6.875 4.187c.558.34 1.269.336 1.822-.01l6.738-4.202a5.453 5.453 0 0 0 2.493-3.609l1.801-9.574c.213-1.131-.331-2.27-1.36-2.848l-1.412-.791c-.56-.314-1.279-.11-1.573.448l-.175.332c-.303.573-1.05.77-1.611.426l-1.439-.881a1.08 1.08 0 0 1-.521-1.005l.12-1.522Zm-2.73 12.198c.936-.439 1.581-1.366 1.581-2.44 0-1.496-1.255-2.71-2.804-2.71s-2.805 1.214-2.805 2.71c0 1.018.58 1.904 1.439 2.368v3.122c0 .69.58 1.25 1.294 1.25.715 0 1.294-.56 1.294-1.25v-3.05Z"/>
</svg>
